X:49
T:The Star of Munster
N:Reel  Allans  #49
N:Trad/Anon
B:Allan's Irish Fiddler (pub. Mozart Allen,  Glascow) date unknown
Z:FROM ALLAN'S TO NOTEWORTHY, FROM NOTEWORTHY TO ABC, MIDI AND .TXT BY VINCE
BRENNAN Dec. 2002 (HTTP://WWW.SOSYOURMOM.COM)
I:abc2nwc
M:2/2
L:1/8
K:C
(ed)|c2Ac B2GB|AGE^F (GE) D2|EAAB cBcd|eaa^f gedB|
cA  ((3AAA) BAGB|BGE^F GE D2|EAAB cded|cABA A2:|
ea|:({a}a)gab ageg|agbg age^f|g2(ga) ged^f| ((3g^fg) af gedg|
eaab ageg| agbg age^f|g^fga b2(ag)|^fgaf gedB:|
